public/payments/common/pay4fun.svg

<svg width="94" height="25" viewBox="0 0 94 25" fill="none" xmlns="http://www.w3.org/2000/svg">
<g clip-path="url(#clip0_141_121)">
<path d="M11.791 7.98213C11.1475 7.61308 10.4328 7.52022 9.60007 7.52022C8.29492 7.52022 7.06448 7.95594 5.95577 9.00832L6.12448 7.9857C6.13394 7.92835 6.13063 7.86965 6.11479 7.8137C6.09895 7.75774 6.07096 7.70586 6.03277 7.66167C5.99457 7.61748 5.94709 7.58204 5.89363 7.55782C5.84016 7.5336 5.78199 7.52118 5.72318 7.52141H3.0273C2.93188 7.52136 2.83948 7.55449 2.76632 7.61501C2.69316 7.67553 2.64391 7.75956 2.6272 7.85237L0.00604792 22.5333C-0.00436882 22.591 -0.00182749 22.6502 0.0134925 22.7069C0.0288125 22.7635 0.0565365 22.8161 0.0947043 22.8609C0.132872 22.9058 0.180551 22.9418 0.23437 22.9665C0.288188 22.9911 0.34683 23.0038 0.40615 23.0036H3.0972C3.19245 23.0037 3.28471 22.9707 3.35785 22.9104C3.43098 22.8501 3.48035 22.7664 3.4973 22.6738L4.39512 17.6631C4.67712 18.0024 5.13989 18.2738 5.62074 18.4845C6.10159 18.6964 6.61497 18.8024 7.15969 18.8024C8.27443 18.8024 9.28192 18.5643 10.1834 18.0905C11.0771 17.6208 11.8453 16.9485 12.4249 16.1286C13.019 15.2952 13.4324 14.3512 13.6662 13.2928C13.7758 12.7845 13.8301 12.3 13.8301 11.8405C13.8301 10.969 13.6505 10.2 13.2926 9.5357C12.9522 8.88702 12.4312 8.34799 11.791 7.98213ZM10.5413 13.1286C10.4296 13.6317 10.2102 14.1054 9.89774 14.5178C9.58441 14.9297 9.19877 15.2536 8.73479 15.494C8.27323 15.7321 7.77189 15.8512 7.2332 15.8512C6.77887 15.8512 6.39564 15.7583 6.07989 15.5702C5.77248 15.3917 5.52485 15.1281 5.36766 14.8119C5.20554 14.4828 5.12382 14.1207 5.12905 13.7547C5.12905 13.5309 5.14953 13.3214 5.19292 13.1286C5.29053 12.669 5.50023 12.2262 5.822 11.7988C6.14377 11.3726 6.53543 11.0262 6.9982 10.7607C7.43238 10.5022 7.92901 10.3641 8.43592 10.3607C9.15297 10.3607 9.69648 10.5476 10.0677 10.9226C10.4376 11.2988 10.6232 11.794 10.6232 12.4107C10.6232 12.6428 10.5967 12.8809 10.5413 13.1286ZM40.8298 7.51903H38.1303C38.0592 7.51915 37.9894 7.53768 37.9279 7.57278C37.8664 7.60787 37.8152 7.6583 37.7796 7.71903L33.8509 14.4393L32.6759 7.84879C32.6594 7.75577 32.6103 7.67145 32.5371 7.6107C32.4639 7.54994 32.3714 7.51664 32.2758 7.51665H29.8655C29.8063 7.51664 29.7477 7.52945 29.694 7.55416C29.6403 7.57887 29.5927 7.6149 29.5546 7.65971C29.5165 7.70451 29.4887 7.75702 29.4733 7.81354C29.4579 7.87006 29.4552 7.92923 29.4654 7.98689L31.3466 18.5345C31.3628 18.627 31.3458 18.7222 31.2984 18.8036L29.1967 22.4012C29.1612 22.4622 29.1425 22.5313 29.1426 22.6016C29.1427 22.672 29.1615 22.7411 29.1971 22.802C29.2328 22.8629 29.284 22.9135 29.3457 22.9486C29.4074 22.9838 29.4773 23.0023 29.5486 23.0024H32.248C32.3927 23.0024 32.5264 22.9262 32.5987 22.8024L41.1817 8.11784C41.2173 8.05694 41.236 7.98786 41.2359 7.91754C41.2359 7.84722 41.217 7.77816 41.1814 7.71732C41.1457 7.65647 41.0944 7.606 41.0327 7.57098C40.9709 7.53596 40.901 7.51763 40.8298 7.51784V7.51903ZM28.0193 7.5357H25.7946C25.65 7.5357 25.5162 7.6107 25.4439 7.73451L24.7497 8.91308C24.1122 7.93332 23.1445 7.52975 21.8586 7.52975C20.7029 7.52975 19.6496 7.68094 18.6855 8.15594C17.7214 8.63094 16.9188 9.29284 16.2801 10.1428C15.3879 11.3328 14.8919 12.7671 14.8605 14.2476C14.8605 15.1488 15.0689 15.9488 15.4883 16.6464C15.897 17.334 16.4895 17.897 17.2008 18.2738C17.9239 18.6619 18.7193 18.8547 19.5882 18.8547C20.1582 18.8547 21.0849 18.7274 21.5947 18.5262C22.1937 18.2881 22.4781 18.2428 22.9987 17.8059L23.4265 18.6345C23.4607 18.7002 23.5125 18.7552 23.5763 18.7937C23.64 18.8321 23.7133 18.8524 23.788 18.8524H25.6958C26.1501 18.8524 26.5369 18.5309 26.6165 18.0905L28.4181 8.00474C28.4283 7.94708 28.4257 7.88792 28.4102 7.8314C28.3948 7.77488 28.3671 7.72237 28.329 7.67757C28.2909 7.63276 28.2433 7.59673 28.1896 7.57202C28.1358 7.5473 28.0773 7.5345 28.018 7.53451L28.0193 7.5357ZM23.4832 13.1393C23.3752 13.6367 23.1539 14.1033 22.836 14.5036C22.5082 14.9238 22.1129 15.2595 21.6465 15.5107C21.2064 15.7556 20.7103 15.8855 20.2052 15.8881C19.7834 15.8881 19.4098 15.7988 19.0893 15.6202C18.7752 15.4489 18.5169 15.1929 18.3445 14.8821C18.1648 14.547 18.0747 14.172 18.083 13.7928C18.083 13.6 18.1071 13.3821 18.1565 13.1405C18.2674 12.6143 18.4891 12.1405 18.8217 11.7214C19.1555 11.3012 19.5508 10.9738 20.0064 10.7416C20.4631 10.5095 20.9223 10.3928 21.3874 10.3928C21.8165 10.3928 22.1949 10.4881 22.5227 10.6786C22.8493 10.869 23.1011 11.1274 23.2795 11.4536C23.4566 11.7809 23.5446 12.1464 23.5446 12.5512C23.5471 12.7489 23.5265 12.9462 23.4832 13.1393ZM81.41 7.52498H78.7226C78.6264 7.52446 78.5332 7.55768 78.4595 7.61872C78.3858 7.67976 78.3364 7.76467 78.3201 7.85832L77.3042 13.5488C77.0728 14.844 76.1123 15.6357 75.0506 15.644C74.885 15.6458 74.7195 15.6358 74.5553 15.6143C73.7093 15.5012 73.1368 14.8333 73.2863 14.0024L74.3155 8.23213C74.331 8.14527 74.327 8.0561 74.3038 7.97092C74.2807 7.88573 74.2389 7.80659 74.1815 7.73906C74.1241 7.67154 74.0523 7.61727 73.9714 7.58007C73.8904 7.54288 73.8022 7.52367 73.7129 7.52379H71.44C71.2964 7.52388 71.1574 7.57392 71.0475 7.66513C70.9375 7.75635 70.8636 7.88291 70.8387 8.0226L69.5323 15.344C69.2141 17.1274 71.5208 18.7643 73.3562 18.7643C75.9364 18.7643 76.5799 17.6166 76.5799 17.6166L76.4594 18.2928C76.449 18.3507 76.4516 18.4102 76.4669 18.467C76.4823 18.5238 76.5101 18.5766 76.5484 18.6217C76.5866 18.6667 76.6344 18.7029 76.6884 18.7278C76.7423 18.7526 76.8012 18.7655 76.8607 18.7655H79.5493C79.6453 18.7657 79.7383 18.7324 79.8117 18.6713C79.8852 18.6103 79.9344 18.5256 79.9506 18.4321L81.8126 7.99641C81.8228 7.93859 81.82 7.87928 81.8046 7.82261C81.7891 7.76595 81.7613 7.71331 81.723 7.66839C81.6848 7.62348 81.6371 7.58736 81.5832 7.56259C81.5294 7.53782 81.4695 7.52498 81.41 7.52498ZM82.0934 18.7655H84.782C84.878 18.7657 84.9709 18.7324 85.0444 18.6713C85.1179 18.6103 85.1671 18.5256 85.1833 18.4321L86.1992 12.7416C86.4306 11.4464 87.3911 10.6559 88.4528 10.6464C88.63 10.6464 88.7951 10.6559 88.9481 10.6762C89.7941 10.7893 90.3666 11.4571 90.2183 12.2881L89.188 18.0583C89.1725 18.1452 89.1764 18.2343 89.1996 18.3195C89.2227 18.4047 89.2645 18.4839 89.3219 18.5514C89.3793 18.6189 89.4511 18.6732 89.532 18.7104C89.613 18.7476 89.7012 18.7668 89.7905 18.7666H92.0646C92.2082 18.7666 92.3472 18.7165 92.4571 18.6253C92.5671 18.5341 92.641 18.4075 92.6659 18.2678L93.9723 10.9464C94.2905 9.16308 91.9838 7.52617 90.1496 7.52617C87.5683 7.52617 86.9247 8.67379 86.9247 8.67379L87.0452 7.9976C87.0556 7.9397 87.053 7.88025 87.0377 7.82344C87.0223 7.76663 86.9945 7.71383 86.9562 7.66877C86.918 7.62372 86.8702 7.5875 86.8162 7.56265C86.7623 7.53781 86.7035 7.52495 86.6439 7.52498H83.9565C83.8603 7.52446 83.7671 7.55768 83.6933 7.61872C83.6196 7.67976 83.5702 7.76467 83.554 7.85832L81.692 18.294C81.6819 18.3518 81.6846 18.4112 81.7001 18.4678C81.7155 18.5245 81.7433 18.5771 81.7816 18.622C81.8198 18.667 81.8675 18.7031 81.9214 18.7279C81.9753 18.7526 82.034 18.7655 82.0934 18.7655ZM68.9816 7.51784H67.0955C66.0615 7.51798 65.0606 7.87796 64.2686 8.53456C63.4765 9.19116 62.9439 10.1024 62.7643 11.1083L62.5136 12.5131H60.6144C60.5186 12.5131 60.4259 12.5466 60.3527 12.6076C60.2795 12.6686 60.2304 12.7532 60.2143 12.8464L59.8141 15.0893C59.804 15.1469 59.8067 15.2061 59.8221 15.2626C59.8375 15.3191 59.8652 15.3716 59.9033 15.4165C59.9414 15.4613 59.989 15.4973 60.0428 15.522C60.0965 15.5467 60.155 15.5595 60.2143 15.5595H61.9713L61.3121 19.1702C61.2705 19.4024 61.1474 19.6127 60.9645 19.7642C60.7816 19.9157 60.5506 19.9988 60.3119 19.9988H59.2634C59.1678 19.9988 59.0753 20.0321 59.0021 20.0928C58.9289 20.1536 58.8798 20.2379 58.8633 20.3309L58.4692 22.5333C58.4588 22.591 58.4614 22.6502 58.4766 22.7067C58.4919 22.7633 58.5195 22.8159 58.5575 22.8609C58.5955 22.9058 58.643 22.9419 58.6967 22.9668C58.7503 22.9917 58.8088 23.0046 58.8681 23.0047H60.4203C61.466 23.0054 62.4785 22.642 63.2799 21.9784C64.0812 21.3148 64.6202 20.3934 64.8022 19.3762L65.4831 15.5631L67.6921 15.5595C67.7876 15.5594 67.8799 15.5258 67.9527 15.4648C68.0255 15.4038 68.0741 15.3192 68.0898 15.2262L68.4911 12.9845C68.5015 12.9267 68.4989 12.8674 68.4836 12.8107C68.4682 12.754 68.4403 12.7013 68.402 12.6564C68.3637 12.6116 68.3159 12.5756 68.2619 12.551C68.208 12.5264 68.1492 12.5139 68.0898 12.5143L66.0254 12.5178L66.1917 11.5916C66.2385 11.3313 66.3763 11.0954 66.5811 10.925C66.7859 10.7547 67.0447 10.6607 67.3125 10.6595L68.5634 10.6571C68.6585 10.6571 68.7506 10.6239 68.8233 10.5633C68.8961 10.5028 68.9449 10.4188 68.9611 10.3262L69.3817 7.98927C69.3923 7.93159 69.3899 7.87232 69.3747 7.81565C69.3596 7.75898 69.332 7.70628 69.2939 7.66131C69.2559 7.61633 69.2083 7.58017 69.1545 7.55538C69.1007 7.53059 69.0409 7.51777 68.9816 7.51784ZM55.8794 16.8428H44.7705V19.9345H49.7236C49.955 19.9345 50.1418 20.119 50.1418 20.3464V22.6083C50.1418 22.8369 50.3286 23.0214 50.5588 23.0214H53.48C53.709 23.0214 53.897 22.8369 53.897 22.6095V20.344C53.897 20.1178 54.0838 19.9321 54.3139 19.9321H55.8806C56.1108 19.9321 56.2976 19.7476 56.2976 19.5202V17.2559C56.2973 17.1465 56.2531 17.0416 56.1748 16.9642C56.0964 16.8868 55.9902 16.8432 55.8794 16.8428ZM55.1877 5.8988L52.5424 4.39046C52.3508 4.2814 52.1232 4.25198 51.9096 4.30869C51.696 4.3654 51.514 4.50358 51.4036 4.69284L46.107 13.7547C46.0338 13.88 45.9953 14.022 45.9953 14.1666C45.9953 14.3111 46.0338 14.4532 46.1069 14.5784C46.1801 14.7036 46.2853 14.8076 46.412 14.88C46.5388 14.9523 46.6825 14.9904 46.8289 14.9905H51.9591C52.1057 14.9906 52.2496 14.9526 52.3766 14.8803C52.5035 14.808 52.6089 14.7039 52.6822 14.5786L55.9999 8.89999C56.6145 7.8488 56.2518 6.50594 55.1877 5.8988ZM53.0787 7.25594L53.6294 7.56903L52.693 9.17022L52.1435 8.85594L53.0787 7.25594ZM51.7868 6.99284C51.842 6.89837 51.9329 6.82939 52.0396 6.80105C52.1462 6.7727 52.2599 6.78731 52.3556 6.84165L52.5364 6.94522L51.6 8.54641L51.0589 8.23808L51.7868 6.99284ZM53.3498 10.5036C53.3224 10.5504 53.2859 10.5914 53.2424 10.6243C53.1989 10.6572 53.1492 10.6813 53.0963 10.6952C53.0434 10.7092 52.9882 10.7127 52.9339 10.7055C52.8796 10.6984 52.8272 10.6807 52.7798 10.6536L50.7914 9.52022C50.7439 9.49311 50.7024 9.45704 50.6691 9.41406C50.6358 9.37109 50.6114 9.32205 50.5973 9.26976C50.5832 9.21746 50.5797 9.16294 50.5869 9.10929C50.5942 9.05565 50.612 9.00394 50.6395 8.95712L50.7468 8.77379L53.4583 10.3202L53.3498 10.5036ZM54.4971 8.53927L53.7692 9.78451L53.2354 9.47975L54.1717 7.87856L54.3453 7.97618C54.3928 8.00317 54.4345 8.03919 54.4678 8.08215C54.5012 8.12511 54.5257 8.17417 54.5398 8.22651C54.5539 8.27885 54.5574 8.33342 54.5501 8.3871C54.5428 8.44078 54.5248 8.49249 54.4971 8.53927ZM40.6803 14.2405L47.1302 3.20475C47.2396 3.0174 47.3854 2.85319 47.5591 2.72152C47.7328 2.58984 47.9311 2.49327 48.1427 2.43733C48.3542 2.38138 48.5748 2.36717 48.7919 2.39549C49.009 2.42381 49.2183 2.4941 49.4079 2.60237L49.7778 2.81308C49.8733 2.86783 49.9428 2.95771 49.9713 3.06304C49.9998 3.16836 49.9848 3.28054 49.9297 3.37498L42.2289 16.55C42.1735 16.6443 42.0825 16.713 41.9759 16.7411C41.8693 16.7692 41.7557 16.7544 41.6601 16.7L41.2913 16.4905C40.9083 16.2721 40.6288 15.9124 40.5143 15.4904C40.3997 15.0685 40.4594 14.6189 40.6803 14.2405Z" fill="#F39001"/>
</g>
<defs>
<clipPath id="clip0_141_121">
<rect width="94" height="25" fill="white"/>
</clipPath>
</defs>
</svg>

<svg xmlns="http://www.w3.org/2000/svg" width="94" height="25" fill="none"><g clip-path="url(#a)"><path fill="#F39001" d="M11.8 7.98a4.25 4.25 0 0 0-2.2-.46c-1.3 0-2.54.44-3.64 1.49l.16-1.02a.4.4 0 0 0-.23-.43.4.4 0 0 0-.17-.04h-2.7a.4.4 0 0 0-.4.33L.02 22.53a.4.4 0 0 0 .22.44l.18.03H3.1a.4.4 0 0 0 .4-.33l.9-5c.28.33.74.6 1.22.81.48.22 1 .32 1.54.32a6.4 6.4 0 0 0 5.26-2.67 7.68 7.68 0 0 0 1.41-4.29c0-.87-.18-1.64-.54-2.3a3.85 3.85 0 0 0-1.5-1.56Zm-1.26 5.15a3.59 3.59 0 0 1-1.8 2.36c-.47.24-.97.36-1.5.36-.46 0-.84-.1-1.16-.28a1.8 1.8 0 0 1-.71-.76c-.16-.33-.25-.69-.24-1.06 0-.22.02-.43.06-.62A3.88 3.88 0 0 1 7 10.76c.44-.26.94-.4 1.45-.4.71 0 1.26.19 1.63.56.37.38.55.87.55 1.5 0 .22-.02.46-.08.7Zm30.29-5.61h-2.7a.41.41 0 0 0-.35.2l-3.93 6.72-1.17-6.6a.4.4 0 0 0-.4-.33h-2.41a.41.41 0 0 0-.32.15.4.4 0 0 0-.08.33l1.88 10.54a.4.4 0 0 1-.05.27l-2.1 3.6a.4.4 0 0 0 .15.55c.06.03.13.05.2.05h2.7a.4.4 0 0 0 .35-.2l8.58-14.68a.4.4 0 0 0-.15-.55.4.4 0 0 0-.2-.05Zm-12.81.02h-2.23a.4.4 0 0 0-.35.2l-.69 1.17c-.64-.98-1.6-1.38-2.9-1.38-1.15 0-2.2.15-3.16.63a6.63 6.63 0 0 0-2.41 1.98 7.1 7.1 0 0 0-1.42 4.1 4.37 4.37 0 0 0 2.34 4.03c.72.4 1.52.58 2.39.58.57 0 1.5-.12 2-.32.6-.24.89-.29 1.4-.72l.44.82a.4.4 0 0 0 .36.22h1.9c.46 0 .85-.32.93-.76L28.42 8a.4.4 0 0 0-.1-.32.4.4 0 0 0-.3-.15Zm-4.54 5.6c-.1.5-.33.96-.64 1.36-.33.42-.73.76-1.2 1.01a3 3 0 0 1-1.43.38c-.43 0-.8-.1-1.12-.27a1.88 1.88 0 0 1-.75-.74 2.2 2.2 0 0 1-.26-1.09 3.37 3.37 0 0 1 .74-2.07c.34-.42.73-.75 1.19-.98.45-.23.91-.35 1.38-.35.43 0 .8.1 1.13.29.33.19.58.45.76.77a2.54 2.54 0 0 1 .2 1.69Zm57.93-5.62h-2.69a.4.4 0 0 0-.4.34l-1.02 5.69c-.23 1.3-1.19 2.09-2.25 2.1-.16 0-.33-.01-.5-.04-.84-.1-1.41-.78-1.26-1.6l1.03-5.78a.6.6 0 0 0-.14-.5.61.61 0 0 0-.47-.2h-2.27a.62.62 0 0 0-.6.5l-1.3 7.31c-.33 1.79 1.98 3.42 3.82 3.42 2.58 0 3.22-1.14 3.22-1.14l-.12.67a.4.4 0 0 0 .23.44c.05.02.11.04.17.04h2.69a.4.4 0 0 0 .4-.34L81.81 8a.4.4 0 0 0-.23-.44.42.42 0 0 0-.17-.04Zm.68 11.25h2.7a.4.4 0 0 0 .4-.34l1-5.69c.24-1.3 1.2-2.08 2.26-2.1.18 0 .35.02.5.04.84.1 1.42.78 1.27 1.6l-1.03 5.78a.6.6 0 0 0 .34.65c.08.04.17.06.26.06h2.27a.61.61 0 0 0 .6-.5l1.31-7.32c.32-1.79-1.99-3.42-3.82-3.42-2.58 0-3.23 1.14-3.23 1.14l.13-.67a.4.4 0 0 0-.23-.44.41.41 0 0 0-.18-.04h-2.68a.4.4 0 0 0-.27.1.4.4 0 0 0-.14.24L81.7 18.29a.4.4 0 0 0 .23.44c.06.02.11.04.17.04ZM69 7.52h-1.9a4.43 4.43 0 0 0-4.33 3.59l-.25 1.4h-1.9a.4.4 0 0 0-.4.34l-.4 2.24a.4.4 0 0 0 .23.43c.06.03.12.04.17.04h1.76l-.66 3.61a1.02 1.02 0 0 1-1 .83h-1.05a.4.4 0 0 0-.4.33l-.4 2.2a.4.4 0 0 0 .24.44.4.4 0 0 0 .17.03h1.55a4.48 4.48 0 0 0 4.38-3.62l.68-3.82h2.21a.4.4 0 0 0 .4-.33l.4-2.25a.4.4 0 0 0-.23-.43.4.4 0 0 0-.17-.04h-2.06l.16-.92c.05-.26.19-.5.4-.66.2-.18.45-.27.72-.27h1.25a.4.4 0 0 0 .4-.33l.42-2.34a.4.4 0 0 0-.09-.33.4.4 0 0 0-.3-.14Zm-13.11 9.32H44.77v3.1h4.95c.23 0 .42.18.42.4v2.27c0 .23.19.41.42.41h2.92c.23 0 .42-.18.42-.41v-2.27c0-.22.18-.4.41-.4h1.57c.23 0 .42-.2.42-.42v-2.26c0-.11-.05-.22-.13-.3a.42.42 0 0 0-.3-.12Zm-.7-10.94-2.64-1.51a.84.84 0 0 0-1.14.3l-5.3 9.06a.82.82 0 0 0 .31 1.13c.13.07.27.11.42.11h5.13a.84.84 0 0 0 .72-.41L56 8.9c.61-1.05.25-2.4-.81-3Zm-2.1 1.36.55.3-.94 1.61-.55-.31.94-1.6Zm-1.3-.27c.06-.1.15-.16.26-.19.1-.03.22-.01.32.04l.18.1-.94 1.6-.54-.3.73-1.25Zm1.57 3.51a.41.41 0 0 1-.42.2.42.42 0 0 1-.15-.05l-1.99-1.13a.41.41 0 0 1-.2-.41c0-.05.02-.1.05-.15l.1-.19 2.72 1.55-.11.18Zm1.15-1.96-.73 1.24-.53-.3.93-1.6.18.1a.41.41 0 0 1 .2.4.4.4 0 0 1-.05.16Zm-13.82 5.7L47.13 3.2a1.65 1.65 0 0 1 1.66-.8c.22.02.43.1.62.2l.37.21a.41.41 0 0 1 .15.56l-7.7 13.18a.42.42 0 0 1-.57.15l-.37-.2a1.65 1.65 0 0 1-.61-2.26Z"/></g><defs><clipPath id="a"><path fill="#fff" d="M0 0h94v25H0z"/></clipPath></defs></svg>
